X:50
T:Old Copperplate, The
R:reel
Z:Transcribed by Dave Marshall
M:C|
K:Ador
|:A2EA cA~A2|aged cAFD|G2DG BG~G2|gedc BGGB|
A2EA cA~A2|aged cABG|ABcd efge| aged cA~A2:|
|:ageg a2ab|aged cA~A2|gede gfga|gedc BG~G2|
ageg a2bg|aged cABG|ABcd efge| aged cA~A2:|
